src/assets/calendar.svg

<svg fill="#c73434" height="16" viewBox="0 0 16 16" width="16" xmlns="http://www.w3.org/2000/svg"><path d="m4 .5a.5.5 0 0 0 -1 0v.5h-1a2 2 0 0 0 -2 2v1h16v-1a2 2 0 0 0 -2-2h-1v-.5a.5.5 0 0 0 -1 0v.5h-8zm12 13.5v-9h-16v9a2 2 0 0 0 2 2h12a2 2 0 0 0 2-2zm-5.146-5.146-3 3a.5.5 0 0 1 -.708 0l-1.5-1.5a.5.5 0 0 1 .708-.708l1.146 1.147 2.646-2.647a.5.5 0 0 1 .708.708z"/></svg>

<svg xmlns="http://www.w3.org/2000/svg" width="16" height="16" fill="#c73434" class="bi bi-calendar-check-fill" viewBox="0 0 16 16">
  <path d="M4 .5a.5.5 0 0 0-1 0V1H2a2 2 0 0 0-2 2v1h16V3a2 2 0 0 0-2-2h-1V.5a.5.5 0 0 0-1 0V1H4V.5zM16 14V5H0v9a2 2 0 0 0 2 2h12a2 2 0 0 0 2-2zm-5.146-5.146-3 3a.5.5 0 0 1-.708 0l-1.5-1.5a.5.5 0 0 1 .708-.708L7.5 10.793l2.646-2.647a.5.5 0 0 1 .708.708z"/>
</svg>
